scalable/actions/format-justify-left.svg

<?xml version="1.0" encoding="UTF-8" standalone="no"?>
<svg
   xmlns:dc="http://purl.org/dc/elements/1.1/"
   xmlns:cc="http://creativecommons.org/ns#"
   xmlns:rdf="http://www.w3.org/1999/02/22-rdf-syntax-ns#"
   xmlns:svg="http://www.w3.org/2000/svg"
   xmlns="http://www.w3.org/2000/svg"
   xmlns:sodipodi="http://sodipodi.sourceforge.net/DTD/sodipodi-0.dtd"
   xmlns:inkscape="http://www.inkscape.org/namespaces/inkscape"
   viewBox="0 0 24 24"
   version="1.1"
   id="svg4"
   sodipodi:docname="format-justify-left.svg"
   inkscape:version="0.92.3 (2405546, 2018-03-11)"
   width="24"
   height="24"
   style="fill:#000000">
  <metadata
     id="metadata10">
    <rdf:RDF>
      <cc:Work
         rdf:about="">
        <dc:format>image/svg+xml</dc:format>
        <dc:type
           rdf:resource="http://purl.org/dc/dcmitype/StillImage" />
        <dc:title></dc:title>
      </cc:Work>
    </rdf:RDF>
  </metadata>
  <defs
     id="defs8" />
  <sodipodi:namedview
     pagecolor="#ffffff"
     bordercolor="#666666"
     borderopacity="1"
     objecttolerance="10"
     gridtolerance="10"
     guidetolerance="10"
     inkscape:pageopacity="0"
     inkscape:pageshadow="2"
     inkscape:window-width="1366"
     inkscape:window-height="717"
     id="namedview6"
     showgrid="false"
     inkscape:zoom="22.5"
     inkscape:cx="11.222222"
     inkscape:cy="12"
     inkscape:window-x="0"
     inkscape:window-y="25"
     inkscape:window-maximized="1"
     inkscape:current-layer="svg4"
     showguides="true"
     inkscape:guide-bbox="true" />
  <path
     style="fill:#333333;stroke-width:0.57841843"
     d="M 2 2 L 2 4.2226562 L 22 4.2226562 L 22 2 L 2 2 z M 1.9550781 6.4453125 L 1.9550781 8.6660156 L 14 8.6660156 L 14 6.4453125 L 1.9550781 6.4453125 z M 2 10.888672 L 2 13.111328 L 22 13.111328 L 22 10.888672 L 2 10.888672 z M 1.9550781 15.333984 L 1.9550781 17.554688 L 14 17.554688 L 14 15.333984 L 1.9550781 15.333984 z M 2 19.777344 L 2 22 L 22 22 L 22 19.777344 L 2 19.777344 z "
     id="path835" />
</svg>

<svg xmlns="http://www.w3.org/2000/svg" viewBox="0 0 24 24">
  <path fill="#333" d="M2 2v2.2227h20V2H2zm-.044922 4.4453V8.666h12.045V6.4453h-12.045zM2 10.8887v2.2227h20v-2.2227H2zm-.044922 4.4453v2.2207h12.045V15.334h-12.045zM2 19.7774v2.2227h20v-2.2227H2z"/>
</svg>
